public/showcase/resources/images/home/icon-templates.svg

<svg height="65" viewBox="0 0 65 65" width="65" xmlns="http://www.w3.org/2000/svg"><g fill="none" fill-rule="evenodd" transform=""><path d="m39.8478261 0h-14.6956522c-13.8478261 0-25.1521739 11.3043478-25.1521739 25.1521739v14.6956522c0 13.8478261 11.3043478 25.1521739 25.1521739 25.1521739h14.6956522c13.8478261 0 25.1521739-11.3043478 25.1521739-25.1521739v-14.6956522c0-13.8478261-11.3043478-25.1521739-25.1521739-25.1521739zm23.7391304 39.8478261c0 13.0706522-10.6684782 23.7391304-23.7391304 23.7391304h-14.6956522c-13.0706522 0-23.73913042-10.6684782-23.73913042-23.7391304v-14.6956522c0-13.0706522 10.66847822-23.73913042 23.73913042-23.73913042h14.6956522c13.0706522 0 23.7391304 10.66847822 23.7391304 23.73913042zm-4.2391304-.2826087c0 10.8804348-8.9021739 19.7826087-19.7826087 19.7826087h-14.1304348c-10.8804348 0-19.78260869-8.9021739-19.78260869-19.7826087v-14.1304348c0-10.8804348 8.90217389-19.78260869 19.78260869-19.78260869h14.1304348c10.8804348 0 19.7826087 8.90217389 19.7826087 19.78260869z" fill="#222" fill-rule="nonzero"/><g fill="#fff" transform="translate(17 17)"><path d="m29.0483965 0h-27.83804665c-.66887755 0-1.21034985.5310656-1.21034985 1.18708782v22.55466848c0 .6560222.5414723 1.1870879 1.21034985 1.1870879h27.83804665c.6688776 0 1.2103499-.5310657 1.2103499-1.1870879v-22.55466848c0-.65602222-.5414723-1.18708782-1.2103499-1.18708782zm-13.6323615 23.7417563c-.6688776 0-1.2103499-.5310656-1.2103499-1.1870878s.5414723-1.1870878 1.2103499-1.1870878c.6688775 0 1.2103498.5310656 1.2103498 1.1870878s-.5414723 1.1870878-1.2103498 1.1870878zm13.6323615-3.5612634h-27.83804665v-18.39986117c0-.31239154.28666181-.59354391.60517493-.59354391h26.62769682c.3185131 0 .6051749.28115237.6051749.59354391z"/><path d="m22.0975219 28.3741756h-1.2103499c-.9873907 0-1.8155248-.8122179-1.8155248-1.7806317v-.5935439h-7.8354227v.5935439c0 .9684138-.8281341 1.7806317-1.81552479 1.7806317h-1.21034986c-.66887755 0-1.21034985.2499133-1.21034985.8746963v.2811524h16.339723v-.2811524c-.0318513-.6560222-.5733236-.8746963-1.2422011-.8746963z"/><path d="m2 2h25.417347v4.748351h-25.417347z"/><path d="m16 8h12.103499v5.935439h-12.103499z"/><path d="m2 8h12.103499v1.187088h-12.103499z"/><path d="m2 13h12.103499v1.187088h-12.103499z"/><path d="m2 11h12.103499v1.187088h-12.103499z"/><path d="m12 16h6.656924v3.561263h-6.656924z"/><path d="m2 16h8.153936v3.561263h-8.153936z"/><path d="m19 16h8.153936v1.187088h-8.153936z"/><path d="m19 18h8.153936v1.187088h-8.153936z"/></g></g></svg>

<?xml version="1.0" encoding="UTF-8"?>
<svg width="65px" height="65px" viewBox="0 0 65 65" version="1.1" xmlns="http://www.w3.org/2000/svg" xmlns:xlink="http://www.w3.org/1999/xlink">
    <!-- Generator: sketchtool 45.2 (43514) - http://www.bohemiancoding.com/sketch -->
    <title>EED710B1-35AE-45AC-805C-6DC0DA1AB1E7</title>
    <desc>Created with sketchtool.</desc>
    <defs></defs>
    <g id="Page-1" stroke="none" stroke-width="1" fill="none" fill-rule="evenodd">
        <g id="PrimeReact-Showcase---Homepage" transform="translate(-1080.000000, -845.000000)">
            <g id="homepage" transform="translate(301.000000, 70.000000)">
                <g id="features" transform="translate(20.000000, 350.000000)">
                    <g id="info-box" transform="translate(92.000000, 171.000000)">
                        <g id="Group" transform="translate(119.000000, 253.000000)">
                            <g id="templates" transform="translate(481.000000, 1.000000)">
                                <g id="icon-templates" transform="translate(67.000000, 0.000000)">
                                    <path d="M39.8478261,0 L25.1521739,0 C11.3043478,0 0,11.3043478 0,25.1521739 L0,39.8478261 C0,53.6956522 11.3043478,65 25.1521739,65 L39.8478261,65 C53.6956522,65 65,53.6956522 65,39.8478261 L65,25.1521739 C65,11.3043478 53.6956522,0 39.8478261,0 Z M63.5869565,39.8478261 C63.5869565,52.9184783 52.9184783,63.5869565 39.8478261,63.5869565 L25.1521739,63.5869565 C12.0815217,63.5869565 1.41304348,52.9184783 1.41304348,39.8478261 L1.41304348,25.1521739 C1.41304348,12.0815217 12.0815217,1.41304348 25.1521739,1.41304348 L39.8478261,1.41304348 C52.9184783,1.41304348 63.5869565,12.0815217 63.5869565,25.1521739 L63.5869565,39.8478261 Z M59.3478261,39.5652174 C59.3478261,50.4456522 50.4456522,59.3478261 39.5652174,59.3478261 L25.4347826,59.3478261 C14.5543478,59.3478261 5.65217391,50.4456522 5.65217391,39.5652174 L5.65217391,25.4347826 C5.65217391,14.5543478 14.5543478,5.65217391 25.4347826,5.65217391 L39.5652174,5.65217391 C50.4456522,5.65217391 59.3478261,14.5543478 59.3478261,25.4347826 L59.3478261,39.5652174 Z" id="Shape" fill="#222222" fill-rule="nonzero"></path>
                                    <g transform="translate(17.000000, 17.000000)" fill="#FFFFFF">
                                        <path d="M29.0483965,0 L1.21034985,0 C0.541472303,0 0,0.531065602 0,1.18708782 L0,23.7417563 C0,24.3977785 0.541472303,24.9288442 1.21034985,24.9288442 L29.0483965,24.9288442 C29.7172741,24.9288442 30.2587464,24.3977785 30.2587464,23.7417563 L30.2587464,1.18708782 C30.2587464,0.531065602 29.7172741,0 29.0483965,0 Z M15.416035,23.7417563 C14.7471574,23.7417563 14.2056851,23.2106907 14.2056851,22.5546685 C14.2056851,21.8986463 14.7471574,21.3675807 15.416035,21.3675807 C16.0849125,21.3675807 16.6263848,21.8986463 16.6263848,22.5546685 C16.6263848,23.2106907 16.0849125,23.7417563 15.416035,23.7417563 Z M29.0483965,20.1804929 L1.21034985,20.1804929 L1.21034985,1.78063173 C1.21034985,1.46824019 1.49701166,1.18708782 1.81552478,1.18708782 L28.4432216,1.18708782 C28.7617347,1.18708782 29.0483965,1.46824019 29.0483965,1.78063173 L29.0483965,20.1804929 Z" id="Shape"></path>
                                        <path d="M22.0975219,28.3741756 L20.887172,28.3741756 C19.8997813,28.3741756 19.0716472,27.5619577 19.0716472,26.5935439 L19.0716472,26 L11.2362245,26 L11.2362245,26.5935439 C11.2362245,27.5619577 10.4080904,28.3741756 9.42069971,28.3741756 L8.21034985,28.3741756 C7.5414723,28.3741756 7,28.6240889 7,29.2488719 L7,29.5300243 L23.339723,29.5300243 L23.339723,29.2488719 C23.3078717,28.5928497 22.7663994,28.3741756 22.0975219,28.3741756 Z" id="Shape"></path>
                                        <rect id="Rectangle-path" x="2" y="2" width="25.4173469" height="4.74835127"></rect>
                                        <rect id="Rectangle-path" x="16" y="8" width="12.1034985" height="5.93543908"></rect>
                                        <rect id="Rectangle-path" x="2" y="8" width="12.1034985" height="1.18708782"></rect>
                                        <rect id="Rectangle-path" x="2" y="13" width="12.1034985" height="1.18708782"></rect>
                                        <rect id="Rectangle-path" x="2" y="11" width="12.1034985" height="1.18708782"></rect>
                                        <rect id="Rectangle-path" x="12" y="16" width="6.6569242" height="3.56126345"></rect>
                                        <rect id="Rectangle-path" x="2" y="16" width="8.15393586" height="3.56126345"></rect>
                                        <rect id="Rectangle-path" x="19" y="16" width="8.15393586" height="1.18708782"></rect>
                                        <rect id="Rectangle-path" x="19" y="18" width="8.15393586" height="1.18708782"></rect>
                                    </g>
                                </g>
                            </g>
                        </g>
                    </g>
                </g>
            </g>
        </g>
    </g>
</svg>
